svg/fluentui-system-icons/ic_fluent_clipboard_task_list_ltr_20_regular.svg

<svg width="20" height="20" viewBox="0 0 20 20" fill="none" xmlns="http://www.w3.org/2000/svg">
<path d="M9.35355 7.85356C9.54881 7.65831 9.54882 7.34172 9.35357 7.14646C9.15831 6.95119 8.84173 6.95118 8.64646 7.14644L7.23436 8.55847L6.8372 8.19572C6.6333 8.0095 6.31704 8.02382 6.13081 8.22772C5.94459 8.43162 5.95891 8.74788 6.16281 8.9341L6.91281 9.6191C7.11021 9.79939 7.41451 9.79251 7.60355 9.60347L9.35355 7.85356ZM9.35357 12.1465C9.54882 12.3417 9.54881 12.6583 9.35355 12.8536L7.60355 14.6035C7.41451 14.7925 7.11021 14.7994 6.91281 14.6191L6.16281 13.9341C5.95891 13.7479 5.94459 13.4316 6.13081 13.2277C6.31704 13.0238 6.6333 13.0095 6.8372 13.1957L7.23436 13.5585L8.64646 12.1464C8.84173 11.9512 9.15831 11.9512 9.35357 12.1465ZM11 12.75C10.7239 12.75 10.5 12.9739 10.5 13.25C10.5 13.5261 10.7239 13.75 11 13.75H13.5C13.7761 13.75 14 13.5261 14 13.25C14 12.9739 13.7761 12.75 13.5 12.75H11ZM10.5 8.25C10.5 7.97386 10.7239 7.75 11 7.75H13.5C13.7761 7.75 14 7.97386 14 8.25C14 8.52614 13.7761 8.75 13.5 8.75H11C10.7239 8.75 10.5 8.52614 10.5 8.25ZM8.5 2C7.84689 2 7.29127 2.4174 7.08535 3H5.5C4.67157 3 4 3.67157 4 4.5V16.5C4 17.3284 4.67157 18 5.5 18H14.5C15.3284 18 16 17.3284 16 16.5V4.5C16 3.67157 15.3284 3 14.5 3H12.9146C12.7087 2.4174 12.1531 2 11.5 2H8.5ZM8 3.5C8 3.22386 8.22386 3 8.5 3H11.5C11.7761 3 12 3.22386 12 3.5C12 3.77614 11.7761 4 11.5 4H8.5C8.22386 4 8 3.77614 8 3.5ZM5.5 4H7.08535C7.29127 4.5826 7.84689 5 8.5 5H11.5C12.1531 5 12.7087 4.5826 12.9146 4H14.5C14.7761 4 15 4.22386 15 4.5V16.5C15 16.7761 14.7761 17 14.5 17H5.5C5.22386 17 5 16.7761 5 16.5V4.5C5 4.22386 5.22386 4 5.5 4Z" fill="#212121"/>
</svg>

<svg xmlns="http://www.w3.org/2000/svg" width="20" height="20"><path d="M9.354 7.854a.5.5 0 0 0-.708-.708L7.234 8.558l-.397-.362a.5.5 0 0 0-.674.738l.75.685a.5.5 0 0 0 .69-.016l1.75-1.75Zm0 4.292a.5.5 0 0 1 0 .708l-1.75 1.75a.5.5 0 0 1-.691.015l-.75-.685a.5.5 0 0 1 .674-.738l.397.363 1.412-1.413a.5.5 0 0 1 .708 0ZM11 12.75a.5.5 0 0 0 0 1h2.5a.5.5 0 0 0 0-1H11Zm-.5-4.5a.5.5 0 0 1 .5-.5h2.5a.5.5 0 0 1 0 1H11a.5.5 0 0 1-.5-.5ZM8.5 2a1.5 1.5 0 0 0-1.415 1H5.5A1.5 1.5 0 0 0 4 4.5v12A1.5 1.5 0 0 0 5.5 18h9a1.5 1.5 0 0 0 1.5-1.5v-12A1.5 1.5 0 0 0 14.5 3h-1.585A1.5 1.5 0 0 0 11.5 2h-3ZM8 3.5a.5.5 0 0 1 .5-.5h3a.5.5 0 0 1 0 1h-3a.5.5 0 0 1-.5-.5ZM5.5 4h1.585A1.5 1.5 0 0 0 8.5 5h3a1.5 1.5 0 0 0 1.415-1H14.5a.5.5 0 0 1 .5.5v12a.5.5 0 0 1-.5.5h-9a.5.5 0 0 1-.5-.5v-12a.5.5 0 0 1 .5-.5Z"/></svg>
